!!!COM: Scarlatti, Domenico
!!!CDT: 1685-1757
!!!OTL: Sonata in A major, L.345, K.113
!!!SCT: K. 113
!!!SCT: L. 345
!!!OMD: Allegrissimo ([half]=120)
**kern	**kern	**dynam
*staff2	*staff1	*staff1/2
*Icemba	*Icemba	*
*I"L.345 (K.113)	*I"L.345 (K.113)	*
*>[A,A,B,B]	*>[A,A,B,B]	*>[A,A,B,B]
*>norep[A,B]	*>norep[A,B]	*>norep[A,B]
*>A	*>A	*>A
*clefF4	*clefG2	*
*k[f#c#g#]	*k[f#c#g#]	*
*A:	*A:	*
*M2/2	*M2/2	*
*MM240	*MM240	*
=1-	=1-	=1-
1r	4r	.
!	!	!LO:DY:rj
.	(8cc#L	f
.	8aJ	.
.	4cc#' 4ee')	.
.	4dd' 4ff#'	.
=2	=2	=2
4r	4cc#' 4ee'	.
4CC#' 4C#'	4c#'	.
4DD' 4D'	4d'	.
4EE' 4E'	4e'	.
=3	=3	=3
4AAA' 4AA'	4A'	.
4r	(8cc#L	.
.	8aJ	.
2r	4cc#' 4aa')	.
.	4dd' 4bb'	.
=4	=4	=4
4r	4cc# 4aa	.
4CC#' 4C#'	4c#'	.
4DD' 4D'	4d'	.
4EE' 4E'	4e'	.
=5	=5	=5
4AAA' 4AA'	4A'	.
4r	(8cc#L	.
.	8aJ	.
2r	8eeL	.
.	8cc#	.
.	8a	.
.	8dd 8ff#J	.
!!LO:LB:g=z
=6	=6	=6
4r	4cc# 4ee)	.
4CC#' 4C#'	4c#'	.
4DD' 4D'	4d'	.
4EE' 4E'	4e'	.
=7	=7	=7
4AAA' 4AA'	4A'	.
4r	(8cc#L	.
.	8aJ	.
2r	8aaL	.
.	8cc#	.
.	8dd	.
.	8bbJ	.
=8	=8	=8
4r	4cc# 4aa)	.
4CC#' 4C#'	4c#'	.
4DD' 4D'	4d'	.
4EE' 4E'	4e'	.
=9	=9	=9
4AAA' 4AA'	8A'L	.
.	(>8e	p
4r	8c#	.
.	8AJ	.
2r	8f#L	.
.	8d	.
.	8g#	.
.	8eJ	.
=10	=10	=10
4AAA 4AA	8aL	.
.	8e	.
4r	8c#	.
.	8AJ	.
2r	8f#L	.
.	8d	.
.	8g#	.
.	8eJ	.
!!LO:LB:g=z
=11	=11	=11
*	*^	*
4AAA' 4AA'	2ryy	8aL	<
.	.	8e	.
4r	.	8c#	.
.	.	8AJ	.
2r	(4a)	(8f#L	.
.	.	8d	.
.	4b	8g#	.
.	.	8eJ	.
=12	=12	=12	=12
4AAA 4AA	4cc#)	8aL	.
.	.	8e	.
4r	4r	8c#	.
.	.	8AJ)	.
2r	(4a	8f#L	.
.	.	8d	.
.	4b	8g#	.
.	.	8eJ	.
=13	=13	=13	=13
4AAA 4AA	8cc#L	4a	mf
.	8ee	.	<
4r	8cc#	4ryy	.
.	8aJ	.	.
2r	2ryy	(8ff#L)	.
.	.	8dd	.
.	.	8gg#	.
.	.	8eeJ	.
*	*v	*v	*
=14	=14	=14
4AAA 4AA	8aaL	.
.	8ee	.
4r	8cc#	.
.	8aJ	.
2r	8ff#L	.
.	8dd	.
.	8gg#	.
.	8eeJ	.
*clefG2	*	*
!!LO:LB:g=z
=15	=15	=15
8r	4aa)	f
(8eL	.	.
8c#	(<2ee	.
8AJ	.	.
8f#L	.	.
8d	.	.
8g#	4dd	.
8eJ	.	.
=16	=16	=16
*	*^	*
8aL	4r	2cc#	.
8e	.	.	.
8c#	&(2aa	.	.
8AJ	.	.	.
8f#L	.	2dd)	.
8d	.	.	.
8g#	4bb&)	.	.
8eJ	.	.	.
*	*v	*v	*
=17	=17	=17
4a')	(8aa'L	.
.	8cc#	.
(4c#	8b	.
.	8aJ)	.
4d	(8aa'L	.
.	8b	.
4e	8a	.
.	8g#J)	.
=18	=18	=18
4a')	(8aa'L	.
.	8cc#	.
(4c#	8b	.
.	8aJ)	.
4d	(8aa'L	.
.	8b	.
4e)	8a	.
.	8g#J	.
*clefF4	*	*
!!LO:LB:g=z
=19	=19	=19
8r	4a')	.
(8EL	.	.
8C#	2cc# (2ee	.
8AAJ	.	.
8F#L	.	.
8D	.	.
8G#	4b 4dd	.
8EJ	.	.
=20	=20	=20
8AL	4a 4cc#)	.
8E	.	.
8B	(2b	.
8EJ	.	.
8c#L	.	.
8E	.	.
8d#	4a	.
8EJ	.	.
=21	=21	=21
4e')	8g#L)	.
.	(8b	p
(4E	8g#	.
.	8eJ	.
4A	8cc#L	.
.	8a	.
4F#	8dd#	.
.	8bJ	.
=22	=22	=22
4G#	8eeL<	.
.	8b	.
4E	8g#	.
.	8eJ	.
4A	8cc#L	.
.	8a	.
4F#	8dd#	.
.	8bJ	.
!!LO:LB:g=z
=23	=23	=23
8G#L)	4ee')	<
(8B	.	.
8G#	2b (2gg#	.
8EJ	.	.
8c#L	.	.
8A	.	.
8d#	4a 4ff#	.
8BJ	.	.
=24	=24	=24
8eL	4g#' 4ee')	.
8B	.	.
8G#	2b (2gg#	.
8EJ	.	.
8c#L	.	.
8A	.	.
8d#	4a 4ff#)	.
8BJ	.	.
=25	=25	=25
4e')	(8ee'L	.
.	8g#	.
(4G#	8f#	.
.	8eJ)	.
4A	(8ee'L	.
.	8f#	.
4B	8e	.
.	8d#J)	.
=26	=26	=26
4e')	(8ee'L	.
.	8g#	.
(4G#	8f#	.
.	8eJ)	.
4A	(8ee'L	.
.	8f#	.
4B	8e	.
.	8d#J)	.
!!LO:LB:g=z
=27	=27	=27
4E')	(8eL	f
.	8ee	.
4r	8fn	>
.	8ddnJ	.
2r	8eL	.
.	8cc#	.
.	8d	.
.	8bJ	.
=28	=28	=28
1r	8eL	.
.	8ccn	.
.	8d	.
.	8bJ	.
.	8cnL	.
.	8a	.
.	8B	.
.	8g#J	.
=29	=29	=29
8r	4a')	p
(4Fn	.	.
.	4g#X (4b	.
8d	.	.
8EL	4a 4ccn	.
8cn	.	.
8D	4b 4dd	.
8BJ	.	.
=30	=30	=30
8CnL	4ccn 4ee	.
8A	.	<
8D	4g#X 4ffn	.
8BJ	.	.
8CL	4a 4ee	.
8A	.	.
8BB	4b 4dd)	.
8G#J	.	.
!!LO:LB:g=z
=31	=31	=31
*	*^	*
!	!	!	!LO:DY:rj
4AA)	4ryy	(<8cc#L	f
.	.	8a	.
4ryy	4aa'	8e	.
.	.	8cc#J	.
4Gn'	4ryy	8bL	.
.	.	8gn	.
4ryy	4ggn'	8e	.
.	.	8bJ	.
=32	=32	=32	=32
4Fn'	4ryy	8aL	.
.	.	8fn	.
4ryy	4ffn'	8d	.
.	.	8aJ	.
4E'	4ryy	8gnL	.
.	.	8e	.
4ryy	4ee'	8cn	.
.	.	8gJ	.
=33	=33	=33	=33
4D'	4ryy	8fnL	.
.	.	8d	.
4ryy	4dd'	8B	.
.	.	8fJ	.
4Cn'	4ryy	8eL	.
.	.	8cn	.
4ryy	4ccn'	8A	.
.	.	8eJ	.
=34	=34	=34	=34
4BB'	4ryy	8dL	.
.	.	8B	.
4ryy	4b'	8G#X	.
.	.	8dJ	.
4AA'	4ryy	8cnL	.
.	.	8e	.
4ryy	4a'	8A	.
.	.	8cJ	.
*	*v	*v	*
!!LO:LB:g=z
=35	=35	=35
4EE'	8BL)	.
.	(<8E	p
4r	8G#	.
.	8BJ	.
2r	8eL	.
.	8B	.
.	8g#	.
.	8eJ	.
=36	=36	=36
8r	4ee')	<
(8BL	.	.
8G#	(2b	.
8EJ	.	.
8c#L	.	.
8A	.	.
8d#	4a	.
8BJ	.	.
=37	=37	=37
8e')	8g#L)	.
8r	(8e	.
4r	8g#	.
.	8bJ	.
2r	8eeL	.
.	8b	.
.	8gg#	.
.	8eeJ	.
*clefG2	*	*
=38	=38	=38
8r	4bb')	f
(8bL	.	.
8g#	(2bb	.
8eJ	.	.
8cc#L	.	.
8a	.	.
8dd#	[4aa	.
8bJ	.	.
!!LO:LB:g=z
=39	=39	=39
4ee')	8aaL]	.
.	8gg#	.
(<4g#	8ff#	.
.	8eeJ	.
4a	8gg#L	.
.	8ff#	.
4b	8ee	.
.	8dd#J	.
=40	=40	=40
8e'L)	8eeL	.
(8ee	8gg#	.
8dd#	8ff#	.
8cc#J	8eeJ	.
8bL	8dd#L	.
8a	8cc#	.
8g#	8b	.
8f#J	8aJ	.
=41	=41	=41
4e')	8g#L	.
.	8a	.
*clefF4	*	*
(4A	8b	.
.	8aJ	.
4B	8g#L	.
.	8f#	.
4BB	8e	.
.	8d#J	.
=42	=42	=42
*	*^	*
4E)	4ryy	8e'L)	mf
.	.	(<8gn	.
4ryy	(4bb	8f#	.
.	.	8gJ	.
4ryy	4cccn)	8bL	.
.	.	8a	.
(4D#	4ryy	8g	.
.	.	8f#J	.
!!LO:LB:g=z
=43	=43	=43	=43
4E)	4ryy	8gnL)	.
.	.	(<8g	.
4ryy	(4bb	8f#	.
.	.	8gJ	.
4ryy	4cccn)	8bL	.
.	.	8a	.
(4D#	4ryy	8g	.
.	.	8f#J	.
=44	=44	=44	=44
4E)	4ryy	8gnL	.
.	.	8f#	.
4ryy	(4cccn	8g	.
.	.	8aJ	.
4ryy	4bb)	8bL	.
.	.	8fn	.
(4Dn	4ryy	8a	.
.	.	8g#J	.
=45	=45	=45	=45
4Cn)	4ryy	8aL	.
.	.	8e	.
4ryy	(4cccn	8a	.
.	.	8ccnJ	.
4ryy	4bb)	8bL	.
.	.	8fn	.
(4D	4ryy	8e	.
.	.	8dJ	.
=46	=46	=46	=46
4Cn)	4ryy	8aL	.
.	.	8d#	.
4ryy	(4aa	8e	.
.	.	8aJ	.
4ryy	4ggn)	8gnL	.
.	.	8e	.
(<4BB	4ryy	8f#X	.
.	.	8d#XJ	.
!!LO:LB:g=z
=47	=47	=47	=47
4E)	4ryy	8e 8gnL	.
.	.	8B	.
4ryy	(4aa	8f# 8a	.
.	.	8cnJ	.
4ryy	4ggn)	8e 8gL	.
.	.	8B	.
(<4BB	4ryy	8d# 8f#	.
.	.	8BJ	.
=48	=48	=48	=48
4E)	4ryy	8e 8gnL	.
.	.	8B	.
4ryy	(4aa	8f# 8a	.
.	.	8cnJ	.
4ryy	4ggn)	8e 8gL	.
.	.	8B	.
(<4BB	4ryy	8d# 8f#	.
.	.	8BJ	.
=49	=49	=49	=49
4E')	4ryy	8e) 8gnL	f
.	.	(<8b	.
4ryy	4bb'	8g	.
.	.	8eJ	.
4A'	4ryy	8ccnL	.
.	.	8a	.
4ryy	4cccn'	8e	.
.	.	8ccJ	.
=50	=50	=50	=50
4Gn'	4ryy	8bL	.
.	.	8gn	.
4ryy	4bb'	8e	.
.	.	8bJ	.
4F#'	4ryy	8aL	.
.	.	8f#	.
4ryy	4aa'	8d#	.
.	.	8aJ	.
!!LO:LB:g=z
=51	=51	=51	=51
4E'	4ryy	8gnL	.
.	.	8e	.
4ryy	4ggn'	8cn	.
.	.	8aJ	.
4Dn'	4ryy	8bL	.
.	.	8f#	.
4ryy	4ff#'	8dn	.
.	.	8f#J	.
=52	=52	=52	=52
4Cn'	4ryy	8bL	.
.	.	8e	.
4ryy	4ee'	8cn	.
.	.	8aJ	.
4BB'	4ryy	8bL	.
.	.	8f#	.
4ryy	4dd#'	8d#	.
.	.	8BJ)	.
*	*v	*v	*
=53	=53	=53
*^	*	*
4rc	4rGG	(>8bL	.
.	.	8a	.
(2B	(4D#	8gn	.
.	.	8f#J	.
.	4E	8gL	.
.	.	8e	.
4A	4A	8a	.
.	.	8f#J	.
*v	*v	*	*
=54	=54	=54
*	*^	*
4B))	4ryy	8gnL	.
.	.	8e	.
4BB'	4ryy	8f#	.
.	.	8d#J	.
4Gn'	4ryy	8eL)	.
.	.	(<8b	p
4ryy	4bb'	8gn	.
.	.	8eJ	.
!!LO:LB:g=z
=55	=55	=55	=55
4A'	4ryy	8ccnL	.
.	.	8a	.
4ryy	4cccn	8e	.
.	.	8ccJ	.
4Gn'	4ryy	8bL	.
.	.	8gn	.
4ryy	4bb'	8e	.
.	.	8bJ	.
=56	=56	=56	=56
4F#'	4ryy	8aL	.
.	.	8f#	.
4ryy	4aa'	8d#	.
.	.	8aJ	.
4E'	4ryy	8gnL	.
.	.	8e	.
4ryy	4ggn'	8cn	.
.	.	8gJ	.
=57	=57	=57	=57
4Dn'	4ryy	8f#L	.
.	.	8dn	.
4ryy	4ff#'	8B	.
.	.	8f#J	.
4Cn'	4ryy	8eL	.
.	.	8cn	.
4ryy	4ee'	8A	.
.	.	8eJ	.
*	*v	*v	*
=58	=58	=58
4BB'	8d#L	.
.	8B	.
(<2BB	8d#	.
.	8f#J	.
.	8bL	.
.	8a	.
4D#	8gn	.
.	8f#J	.
!!LO:LB:g=z
=59	=59	=59
4E	8gnL	.
.	8e	.
4A	8a	.
.	8f#J	.
4B)	8gL	.
.	8e	.
4BB'	8f#	.
.	8d#J	.
=60	=60	=60
*	*^	*
4E'	4ryy	8eL)	.
.	.	(<8B	.
4ryy	4bb'	8g#X	.
.	.	8eJ	.
(<2BB^	4ryy	8f#L<	.
.	.	8d#	.
.	4ryy	8a	.
.	.	8f#J	.
=61	=61	=61	=61
4E')	4ryy	8g#L	.
.	.	8e	.
4ryy	4bb'	8b	.
.	.	8eJ	.
(2BBB^	4ryy	8f#L<	.
.	.	8d#	.
.	4ryy	8a	.
.	.	8f#J	.
=62	=62	=62	=62
4EE')	4ryy	8g#L	.
.	.	8e	.
4ryy	4bb'	8b	.
.	.	8eJ	.
(2BBB^	4ryy	8f#L<	.
.	.	8d#	.
.	4ryy	8a	.
.	.	8f#J	.
*	*v	*v	*
!!LO:LB:g=z
=63	=63	=63
4EE')	8g#L	.
.	8a	.
(4A	8b	.
.	8aJ	.
4B	8g#L	.
.	8f#	.
4BB	8e	.
.	8d#J	.
=64	=64	=64
*	*^	*
4E')	4ryy	8eL	f
.	.	8B	.
4r	4bb'	8g#	.
.	.	8eJ	.
(2BB^	4ryy	8f#L<	.
.	.	8d#	.
.	4ryy	8a	.
.	.	8f#J	.
=65	=65	=65	=65
4E')	4ryy	8g#L	.
.	.	8e	.
4r	4bb'	8b	.
.	.	8eJ	.
(2BBB^	4ryy	8f#L<	.
.	.	8d#	.
.	4ryy	8a	.
.	.	8f#J	.
=66	=66	=66	=66
4EE')	4ryy	8g#L	.
.	.	8e	.
4r	4bb'	8b	.
.	.	8eJ	.
(2BBB^	4ryy	8f#L<	.
.	.	8d#	.
.	4ryy	8a	.
.	.	8f#J	.
*	*v	*v	*
!!LO:LB:g=z
=67	=67	=67
4EE')	8g#L	.
.	8a	.
(4A	8b	.
.	8aJ	.
4B	8g#L	.
.	8f#	.
4BB	8e	.
.	8d#J	.
=68	=68	=68
4E')	8eL)	.
*	*clefF4	*clefF4
.	(8B	.
(4AA	8c#	.
.	8AJ	.
4BB	8G#L	.
.	8e	.
4BBB)	8F#	.
.	8d#J	.
=69	=69	=69
2EE^	8eL	.
.	8B	.
.	8G#	.
.	8EJ)	.
2r	2EMM	.
*	*clefG2	*clefG2
=70:|!|:	=70:|!|:	=70:|!|:
*>B	*>B	*>B
4EE	8r	p
.	(<8eL	.
4r	8f#	.
.	8eJ	.
2r	8g#L	.
.	8e	.
.	8a	.
.	8eJ	.
!!LO:LB:g=z
=71	=71	=71
4E	8bL	.
.	8e	.
4E' 4d'	8g#	.
.	8eJ	.
4E' 4c#'	8aL	.
.	8e	.
4E' 4B'	8b	.
.	8eJ	.
=72	=72	=72
4E' 4A'	8cc#L	.
.	8e	.
4E' 4d'	8g#	.
.	8eJ	.
4E' 4c#'	8aL	.
.	8e	.
4E' 4B'	8b	.
.	8eJ	.
=73	=73	=73
4E' 4A'	8cc#L	.
.	8e	.
4E 4d	8g#	.
.	8eJ	.
4E' 4c#'	8aL	.
.	8e	.
4E' 4B'	8b	.
.	8eJ	.
=74	=74	=74
4AA 4A	8cc#L<)	mf
.	(8a	.
4r	8b	.
.	8aJ	.
2r	8cc#L	.
.	8a	.
.	8dd	.
.	8aJ	.
!!LO:LB:g=z
=75	=75	=75
4A'	8eeL	.
.	8a	.
4A 4gn	8cc#	.
.	8aJ	.
4A' 4f#'	8ddL	.
.	8a	.
4A' 4e'	8ee	.
.	8aJ	.
=76	=76	=76
4A' 4d'	8ff#L	.
.	8a	.
4A 4gn	8cc#	.
.	8aJ	.
4A' 4f#'	8ddL	.
.	8a	.
4A' 4e'	8ee	.
.	8aJ	.
=77	=77	=77
4A' 4d'	8ff#L	.
.	8a	.
4A 4gn	8cc#	.
.	8aJ	.
4A' 4f#'	8ddL	.
.	8a	.
4A' 4e'	8ee	.
.	8aJ	.
=78	=78	=78
*	*^	*
4d'	4ryy	8ff#L)	f
.	.	(<8a	.
4ryy	4aa'	8dd	.
.	.	8aJ	.
(2AA^	4ryy	8eeL	.
.	.	8a	.
.	4ryy	8ggn	.
.	.	8aJ	.
!!LO:LB:g=z
=79	=79	=79	=79
4D')	4ryy	8ff#L	.
.	.	8a	.
4ryy	4aa'	8dd	.
.	.	8aJ	.
(<2AA^	4ryy	8eeL	.
.	.	8a	.
.	4ryy	8ggn	.
.	.	8aJ	.
=80	=80	=80	=80
4D')	4ryy	8ff#L	.
.	.	8a	.
4ryy	4aa'	8ee	.
.	.	8aJ	.
(<2BB^	4ryy	8dd#L	.
.	.	8b	.
.	4ryy	8aa	.
.	.	8bJ	.
=81	=81	=81	=81
4E')	4ryy	8gg#XL	.
.	.	8b	.
4ryy	4bb'	8ee	.
.	.	8bJ	.
(<2BB^	4ryy	8ff#L	.
.	.	8b	.
.	4ryy	8aa	.
.	.	8bJ	.
=82	=82	=82	=82
4E')	4ryy	8gg#L	.
.	.	8b	.
4ryy	4bb'	8ee	.
.	.	8bJ	.
(<2BB^	4ryy	8ff#L	.
.	.	8b	.
.	4ryy	8aa	.
.	.	8bJ	.
*	*v	*v	*
!!LO:LB:g=z
=83	=83	=83
4E')	8gg#XL	.
.	8ffn	.
4r	8ee	.
.	8ddJ	.
4r	8ccnL<	.
.	8b	.
8r	8a	.
(8e	8g#J	.
=84	=84	=84
4fn	8aL)	.
.	(8aa	.
4d	8gg#	.
.	8aaJ	.
4g#X	8bbL	.
.	8dd	.
4e	8ccn	.
.	8bJ	.
=85	=85	=85
4a')	8ccnL	.
.	8ffn	.
(2d	8ee	.
.	8ddJ	.
.	8ccL<	.
.	8b	.
4e	8a	.
.	8g#J	.
=86	=86	=86
4fn	8aL)	.
.	(8aa	.
4d	8gg#	.
.	8aaJ	.
4g#	8bbL	.
.	8dd	.
4e	8ccn	.
.	8bJ	.
!!LO:LB:g=z
=87	=87	=87
4a')	8ccnL	.
.	8aa	.
(4e	8b	>
.	8ggnJ	.
4fn	8aL	.
.	8ffn	.
4cn	8gn	.
.	8eeJ	.
=88	=88	=88
4d	8fnL	.
.	8dd	.
4A	8e	.
.	8ccnJ	.
4Fn	8dL	.
.	8b	.
4A	8cn	.
.	8aJ	.
=89	=89	=89
4E')	8bL	p
.	8a	<
(4.e^	8g#X	.
.	8f#J	.
.	4e')	.
8dL	.	.
8cn	([4ee^	.
8BJ	.	.
=90	=90	=90
4A')	8eeL]	.
.	8dd	.
*clefG2	*	*
(4.a^	8ccn	.
.	8bJ	.
.	4a'\)	.
8gnL	.	.
8fn	([4aa^	.
8eJ	.	.
!!LO:LB:g=z
=91	=91	=91
4d')	8aaL]	.
.	8ggn	.
(4.dd^	8ffn	.
.	8eeJ	.
.	4dd')	.
8ccnL	.	.
8b	([4bb^	.
8aJ	.	.
=92	=92	=92
4e')	8bbL]	.
.	8aa	.
(4.ee^	8gg#X	.
.	8ff#XJ	.
.	4.ee)	.
8ddL	.	.
8ccn	.	.
8bJ	(8gg#	.
=93	=93	=93
4a')	8aaL	f
.	8bb	.
(<4d	8cccn	.
.	8dddJ	.
4e	8cccL	.
.	8bb	.
*clefF4	*	*
4E	8aa	.
.	8gg#J	.
=94	=94	=94
4AA')	8aaL	.
.	8ffn	.
(2A	8ee	.
.	8ddJ	.
.	8ccnL<	.
.	8b	.
4E	8a	.
.	8g#XJ	.
!!LO:LB:g=z
=95	=95	=95
4Fn	8aL	.
.	8b	.
4D	8ccn	.
.	8ddJ	.
4E	8ccL<	.
.	8b	.
4EE	8a	.
.	8g#J	.
=96	=96	=96
*	*^	*
4AA')	4ryy	8aL)	.
.	.	(<8e	.
4ryy	4cccn'	8ccn	.
.	.	8aJ	.
4Gn'	4ryy	8bL	.
.	.	8gn	.
4ryy	4bb'	8e	.
.	.	8bJ	.
=97	=97	=97	=97
4Fn'	4ryy	8aL	.
.	.	8fn	.
4ryy	4aa'	8d	.
.	.	8aJ	.
4E'	4ryy	8gnL	.
.	.	8e	.
4ryy	4ggn'	8cn	.
.	.	8gJ	.
=98	=98	=98	=98
4D'	4ryy	8fnL	.
.	.	8d	.
4ryy	4ffn'	8B	.
.	.	8fJ	.
4Cn'	4ryy	8eL	.
.	.	8cn	.
4ryy	4ee'	8A	.
.	.	8eJ	.
!!LO:LB:g=z
=99	=99	=99	=99
4BB'	4ryy	8dL	.
.	.	8B	.
4ryy	4dd'	8Gn	.
.	.	8dJ	.
4AA'	4ryy	8cnL	.
.	.	8A	.
4ryy	4ccn'	8Fn	.
.	.	8cJ	.
=100	=100	=100	=100
4GGn'	4ryy	8eL	.
.	.	8B	.
4ryy	4b'	8Gn	.
.	.	8BJ	.
4FFn'	4ryy	8eL	.
.	.	8A	.
4ryy	4a'	8Fn	.
.	.	8dJ	.
*	*v	*v	*
=101	=101	=101
4EE'	8eL	.
.	8B	.
(4.E^	8G#X	.
.	8BJ	.
.	4e')	.
8DnL<	.	.
8Cn	4g#'	.
8BBJ	.	.
=102	=102	=102
4Cn\	(8aL	.
.	8b	.
4D	8ccn	.
.	8ddJ	.
4E	8ccL<	.
.	8b	.
4EE	8a	.
.	8g#XJ	.
!!LO:LB:g=z
=103	=103	=103
*	*^	*
4AA')	4ryy	8aL)	p
.	.	(<8e	.
4ryy	4cccn'	8ccn	.
.	.	8aJ	.
4Gn'	4ryy	8bL	.
.	.	8gn	.
4ryy	4bb'	8e	.
.	.	8bJ	.
=104	=104	=104	=104
4Fn	4ryy	8aL	.
.	.	8fn	.
4ryy	4aa'	8d	.
.	.	8aJ	.
4E'	4ryy	8gnL	.
.	.	8e	.
4ryy	4ggn'	8cn	.
.	.	8gJ	.
=105	=105	=105	=105
4D'	4ryy	8fnL	.
.	.	8d	.
4ryy	4ffn'	8B	.
.	.	8fJ	.
4Cn'	4ryy	8eL	.
.	.	8cn	.
4ryy	4ee'	8A	.
.	.	8eJ	.
=106	=106	=106	=106
4BB'	4ryy	8dL	.
.	.	8B	.
4ryy	4dd'	8Gn	.
.	.	8dJ	.
4AA'	4ryy	8cnL	.
.	.	8A	.
4ryy	4ccn'	8Fn	.
.	.	8cJ	.
!!LO:LB:g=z
=107	=107	=107	=107
4GGn'	4ryy	8eL	.
.	.	8B	.
4ryy	4b'	8Gn	.
.	.	8BJ	.
4FFn'	4ryy	8eL	.
.	.	8A	.
4ryy	4a'	8Fn	.
.	.	8dJ	.
*	*v	*v	*
=108	=108	=108
4EE'	8eL	.
.	8B	.
(4.E^	8G#X	.
.	8BJ	.
.	4e')	.
8DnL<	.	.
8Cn	4g#'	.
8BBJ	.	.
=109	=109	=109
4Cn\	(8aL	.
.	8b	.
4D	8ccn	.
.	8ddJ	.
4E	8ccL<	.
.	8b	.
4EE	8a	.
.	8g#J	.
=110	=110	=110
*	*^	*
4AA')	4ryy	8aL)	.
.	.	(<8e	.
4ryy	4aa'	8cc#X	.
.	.	8eJ	.
(2EE^	4ryy	8bL<	.
.	.	8e	.
.	4ryy	8dd	.
.	.	8eJ	.
!!LO:LB:g=z
=111	=111	=111	=111
4AA')	4ryy	8cc#L	.
.	.	8e	.
4ryy	4aa'	8a	.
.	.	8eJ	.
(2EE^	4ryy	8bL<	.
.	.	8e	.
.	4ryy	8dd	.
.	.	8eJ	.
=112	=112	=112	=112
4AA')	4ryy	8cc#L	.
.	.	8e	.
4ryy	4aa'	8a	.
.	.	8eJ	.
(2EE^	4ryy	8bL<	.
.	.	8e	.
.	4ryy	8dd	.
.	.	8eJ	.
*	*v	*v	*
=113	=113	=113
4AA')	8cc#L	.
.	8dd	.
(4D	8ee	.
.	8ddJ	.
4E	8cc#L<	.
.	8b	.
4EE	8a	.
.	8g#J	.
=114	=114	=114
*	*^	*
4AA')	4ryy	8aL)	f
.	.	(<8e	.
4ryy	4aa'	8cc#	.
.	.	8eJ	.
(2EE^	4ryy	8bL<	.
.	.	8e	.
.	4ryy	8dd	.
.	.	8eJ	.
!!LO:LB:g=z
=115	=115	=115	=115
4AA')	4ryy	8cc#L	.
.	.	8e	.
4ryy	4aa'	8a	.
.	.	8eJ	.
(2EE^	4ryy	8bL<	.
.	.	8e	.
.	4ryy	8dd	.
.	.	8eJ	.
=116	=116	=116	=116
4AA')	4ryy	8cc#L	.
.	.	8e	.
4ryy	4aa'	8a	.
.	.	8eJ	.
(2EE^	4ryy	8bL<	.
.	.	8e	.
.	4ryy	8dd	.
.	.	8eJ	.
*	*v	*v	*
=117	=117	=117
4AA')	8cc#L	.
.	8dd	.
(4D	8ee	.
.	8ddJ	.
4E	8cc#L<	.
.	8b	.
4EE	8a	.
.	8g#J	.
=118	=118	=118
4AA')	8aL)	.
.	(>8e	.
(4D	8f#	.
.	8dJ	.
4E)	8c#L	.
.	8a	.
4EE'	8B	.
.	8g#J	.
!!LO:LB:g=z
=119	=119	=119
2AA	8aL	.
.	8e	.
.	8c#	.
.	8AJ	.
2r	8BL	.
.	8d	.
.	8e	.
.	8g#J	.
=120	=120	=120
2AA	8aL	.
.	8e	.
.	8c#	.
.	8AJ	.
2r	8BL	.
.	8d	.
.	8e	.
.	8g#J	.
=121	=121	=121
!	!LO:TX:c:i:t=rall.	!
2AA	8aL	.
.	8e	.
.	8c#	.
.	8AJ	.
2r	8BL	.
.	8d	.
.	8e	.
.	8g#J)	.
=122	=122	=122
.	(>4g#qq	.
1AA: 1C#: 1E: 1A:	1c#: 1e: 1a:)	.
==:|!	==:|!	==:|!
*-	*-	*-
!!!RDF**kern: > = above
!!!RDF**kern: < = below
!!!RDF**dynam: > = dim.
!!!verovio: beamFrenchStyle 1
!!!URL-vhv: https://verovio.humdrum.org/?file=scarlatti/sonatas/L345K113.krn
!!!URL-pdf: https://github.com/craigsapp/scarlatti-keyboard-sonatas/blob/master/reference-edition/L345K113.pdf
!!!URL-youtube: https://www.youtube.com/watch?v=lUBzn5aM6LY Maria Grinberg, piano
!!!URL-youtube: https://www.youtube.com/watch?v=EYnR-viXlJg Benjamin Frith, piano
!!!PTL: Domenico Scarlatti: Opere complete per clavicembalo
!!!PED: Longo, Alessandro
!!!PPR: Ricordi
!!!PPP: Milan
!!!PDT: 1906-1913
!!!YEC: 2021 Craig Stuart Sapp
!!!YEM: Licence: (CC BY-NC-SA 4.0) https://creativecommons.org/licenses/by-nc-sa/4.0
!!!ENC: Craig Stuart Sapp
!!!END: 2004/11/02
!!!EED: Craig Stuart Sapp
!!!EEV: 2021/06/05
